src/img/svg/logotype-footer.svg

<svg width="99" height="32" viewBox="0 0 99 32" fill="none" xmlns="http://www.w3.org/2000/svg">
<g clip-path="url(#clip0)">
<path fill-rule="evenodd" clip-rule="evenodd" d="M0.488968 15.452C0.488968 10.4485 4.54514 6.39229 9.54868 6.39229C14.5522 6.39229 18.6084 10.4485 18.6084 15.452C18.6084 20.4556 14.5522 24.5117 9.54868 24.5117C4.54514 24.5117 0.488968 20.4556 0.488968 15.452Z" fill="white"/>
<path fill-rule="evenodd" clip-rule="evenodd" d="M12.9485 23.8513L9.55663 21.7761V18.6332L12.3885 16.5757L15.6931 17.3175L16.3516 21.433L12.9485 23.8513Z" fill="#00ADEE"/>
<path fill-rule="evenodd" clip-rule="evenodd" d="M18.5498 14.4357L15.6928 17.3177L12.3881 16.576L11.3065 13.2467L13.3488 10.1038L17.3669 10.8751L18.5498 14.4357Z" fill="#00ADEE"/>
<path fill-rule="evenodd" clip-rule="evenodd" d="M6.47071 23.9758L9.53906 21.7767V18.6337L6.70703 16.5763L3.40236 17.318L2.90321 21.61L6.47071 23.9758Z" fill="#00ADEE"/>
<path fill-rule="evenodd" clip-rule="evenodd" d="M0.550865 14.3894L3.40254 17.3177L6.70721 16.576L7.78906 13.2467L5.74667 10.1038L1.73895 10.8566L0.550865 14.3894Z" fill="#00ADEE"/>
<path fill-rule="evenodd" clip-rule="evenodd" d="M7.78854 6.56379L5.74654 10.104L7.78893 13.2469H11.3072L13.3496 10.104L11.3072 6.56379H7.78854Z" fill="#00ADEE"/>
<path d="M1.29064 10.6634C0.649391 11.7653 0.222336 13.0062 0.0666962 14.3291C0.066124 14.3333 0.0657425 14.3375 0.0651703 14.3417C0.0228271 14.706 0.000320435 15.0764 0.000320435 15.452C0.000320435 17.9319 0.950943 20.1939 2.50658 21.8931C2.53137 21.9278 2.56055 21.9595 2.59374 21.9868C3.60426 23.0616 4.86005 23.9033 6.2713 24.4205C6.29667 24.432 6.32299 24.4415 6.34988 24.4484C7.35029 24.8051 8.4268 25 9.54832 25C10.7992 25 11.9945 24.7578 13.0903 24.3185C13.12 24.3095 13.1486 24.2977 13.1763 24.2832C14.5236 23.7278 15.7169 22.8725 16.6728 21.8012C16.7041 21.7735 16.732 21.7424 16.7554 21.7081C18.2128 20.0312 19.0963 17.8429 19.0963 15.452C19.0963 15.0936 19.0757 14.7398 19.037 14.3915C19.0366 14.3871 19.036 14.3829 19.0355 14.3787C18.9645 13.7466 18.8316 13.1332 18.6429 12.5444L23.772 7.41539C23.9627 7.22466 23.9627 6.91547 23.772 6.72474C23.6766 6.62937 23.5517 6.58169 23.4268 6.58169C23.3018 6.58169 23.1769 6.62937 23.0815 6.72474L18.2601 11.5459C18.1259 11.2478 17.9767 10.9575 17.8136 10.6766C17.7987 10.643 17.7799 10.6115 17.7579 10.5824C16.5475 8.54969 14.6043 7.00245 12.2953 6.30741L15.735 2.86789C15.9255 2.67715 15.9255 2.36797 15.735 2.17724C15.6396 2.08187 15.5145 2.03419 15.3896 2.03419C15.2646 2.03419 15.1397 2.08187 15.0443 2.17724L11.178 6.04382C10.6481 5.95226 10.1037 5.90401 9.54832 5.90401C6.07027 5.90401 3.02099 7.77378 1.35168 10.5606C1.32726 10.5923 1.30666 10.6266 1.29064 10.6634ZM5.51542 10.6441L7.25263 13.3175L6.3289 16.1604L4.13335 16.6534L3.5621 16.7816L1.06596 14.2183C1.21759 13.1708 1.55939 12.184 2.0553 11.294L5.51542 10.6441ZM11.8438 13.3175L13.5803 10.6455L17.0511 11.3115C17.5483 12.2089 17.889 13.2046 18.0366 14.2612L15.5372 16.7824L12.7675 16.1604L12.152 14.2658L11.8438 13.3175ZM16.6555 20.2385L16.2151 17.4856L18.1182 15.5659C18.0955 17.2937 17.5598 18.9001 16.6555 20.2385ZM10.9527 13.735L11.8152 16.3895L9.55728 18.0298L7.29936 16.3893L8.16187 13.735H10.9527ZM0.977837 15.5275L2.89091 17.4921L2.55273 20.3997C1.57426 19.0201 0.993668 17.3401 0.977837 15.5275ZM3.41543 21.4336L3.84763 17.7183L4.8982 17.4826L6.59898 17.1007L9.05107 18.8822V21.5256L6.401 23.4249C5.26785 22.9759 4.25294 22.2919 3.41543 21.4336ZM7.56582 23.7915L9.56892 22.3558L11.802 23.7221C11.0835 23.9182 10.328 24.0234 9.54832 24.0234C8.86606 24.0234 8.2023 23.9429 7.56582 23.7915ZM12.9871 23.3025L10.0456 21.5027V18.8822L11.7751 17.6256L12.4975 17.1007L15.2639 17.7217L15.8323 21.2746C15.0379 22.1313 14.071 22.8258 12.9871 23.3025ZM16.2959 10.1723L13.6613 9.66644L12.3195 7.34062C13.9047 7.88364 15.2818 8.87909 16.2959 10.1723ZM10.9977 7.00378L12.7775 10.0887L11.0425 12.7584H8.0541L6.31918 10.0887L8.09854 7.00397C8.57004 6.92329 9.05431 6.88076 9.54832 6.88076C10.0423 6.88057 10.5264 6.9231 10.9977 7.00378ZM6.77694 7.34062L5.43588 9.66549L2.81137 10.1585C3.82436 8.87203 5.19727 7.88174 6.77694 7.34062Z" fill="white"/>
<path d="M18.2753 7.41556L24.8569 0.833685C25.0477 0.64295 25.0477 0.333769 24.8569 0.143034C24.7616 0.0478573 24.6367 0.000173569 24.5117 0.000173569C24.3868 0.000173569 24.2619 0.0478573 24.1665 0.143225L17.5846 6.72491C17.3941 6.91565 17.3941 7.22483 17.5846 7.41556C17.7753 7.60611 18.0845 7.60611 18.2753 7.41556Z" fill="white"/>
<path d="M16.8877 1.51306C17.0161 1.51306 17.1419 1.4608 17.2327 1.37001C17.3235 1.27922 17.376 1.15334 17.376 1.0244C17.376 0.896034 17.3237 0.770531 17.2327 0.67955C17.1419 0.588188 17.0161 0.536118 16.8877 0.536118C16.7591 0.536118 16.6333 0.588188 16.5425 0.67955C16.4517 0.77034 16.3994 0.896034 16.3994 1.0244C16.3994 1.15334 16.4515 1.27922 16.5425 1.37001C16.6333 1.4608 16.7591 1.51306 16.8877 1.51306Z" fill="white"/>
</g>
<path d="M34.984 25.384C34.248 25.384 33.544 25.28 32.872 25.072C32.2 24.864 31.584 24.552 31.024 24.136C30.464 23.72 29.976 23.216 29.56 22.624C29.144 22.016 28.816 21.312 28.576 20.512L31.624 19.312C31.848 20.176 32.24 20.896 32.8 21.472C33.36 22.032 34.096 22.312 35.008 22.312C35.344 22.312 35.664 22.272 35.968 22.192C36.288 22.096 36.568 21.968 36.808 21.808C37.064 21.632 37.264 21.416 37.408 21.16C37.552 20.904 37.624 20.608 37.624 20.272C37.624 19.952 37.568 19.664 37.456 19.408C37.344 19.152 37.152 18.912 36.88 18.688C36.624 18.464 36.28 18.248 35.848 18.04C35.432 17.832 34.912 17.616 34.288 17.392L33.232 17.008C32.768 16.848 32.296 16.632 31.816 16.36C31.352 16.088 30.928 15.76 30.544 15.376C30.16 14.992 29.84 14.544 29.584 14.032C29.344 13.504 29.224 12.912 29.224 12.256C29.224 11.584 29.352 10.96 29.608 10.384C29.88 9.792 30.256 9.28 30.736 8.848C31.232 8.4 31.816 8.056 32.488 7.816C33.176 7.56 33.936 7.432 34.768 7.432C35.632 7.432 36.376 7.552 37 7.792C37.64 8.016 38.176 8.312 38.608 8.68C39.056 9.032 39.416 9.424 39.688 9.856C39.96 10.288 40.16 10.696 40.288 11.08L37.432 12.28C37.272 11.8 36.976 11.368 36.544 10.984C36.128 10.6 35.552 10.408 34.816 10.408C34.112 10.408 33.528 10.576 33.064 10.912C32.6 11.232 32.368 11.656 32.368 12.184C32.368 12.696 32.592 13.136 33.04 13.504C33.488 13.856 34.2 14.2 35.176 14.536L36.256 14.896C36.944 15.136 37.568 15.416 38.128 15.736C38.704 16.04 39.192 16.408 39.592 16.84C40.008 17.272 40.32 17.768 40.528 18.328C40.752 18.872 40.864 19.504 40.864 20.224C40.864 21.12 40.68 21.896 40.312 22.552C39.96 23.192 39.504 23.72 38.944 24.136C38.384 24.552 37.752 24.864 37.048 25.072C36.344 25.28 35.656 25.384 34.984 25.384ZM42.5727 13.24H45.5247V14.656H45.7167C46.0047 14.16 46.4527 13.736 47.0607 13.384C47.6687 13.032 48.4207 12.856 49.3167 12.856C50.0687 12.856 50.7807 13.016 51.4527 13.336C52.1407 13.64 52.7407 14.072 53.2527 14.632C53.7807 15.176 54.1967 15.832 54.5007 16.6C54.8047 17.368 54.9567 18.208 54.9567 19.12C54.9567 20.032 54.8047 20.872 54.5007 21.64C54.1967 22.408 53.7807 23.072 53.2527 23.632C52.7407 24.176 52.1407 24.608 51.4527 24.928C50.7807 25.232 50.0687 25.384 49.3167 25.384C48.4207 25.384 47.6687 25.208 47.0607 24.856C46.4527 24.504 46.0047 24.08 45.7167 23.584H45.5247L45.7167 25.264V30.184H42.5727V13.24ZM48.6687 22.48C49.0847 22.48 49.4767 22.4 49.8447 22.24C50.2287 22.08 50.5647 21.856 50.8527 21.568C51.1407 21.28 51.3727 20.928 51.5487 20.512C51.7247 20.096 51.8127 19.632 51.8127 19.12C51.8127 18.608 51.7247 18.144 51.5487 17.728C51.3727 17.312 51.1407 16.96 50.8527 16.672C50.5647 16.384 50.2287 16.16 49.8447 16C49.4767 15.84 49.0847 15.76 48.6687 15.76C48.2527 15.76 47.8527 15.84 47.4687 16C47.1007 16.144 46.7727 16.36 46.4847 16.648C46.1967 16.936 45.9647 17.288 45.7887 17.704C45.6127 18.12 45.5247 18.592 45.5247 19.12C45.5247 19.648 45.6127 20.12 45.7887 20.536C45.9647 20.952 46.1967 21.304 46.4847 21.592C46.7727 21.88 47.1007 22.104 47.4687 22.264C47.8527 22.408 48.2527 22.48 48.6687 22.48ZM62.0536 12.856C62.9656 12.856 63.7976 13.016 64.5496 13.336C65.3176 13.64 65.9736 14.072 66.5176 14.632C67.0776 15.176 67.5096 15.832 67.8136 16.6C68.1336 17.368 68.2936 18.208 68.2936 19.12C68.2936 20.032 68.1336 20.872 67.8136 21.64C67.5096 22.408 67.0776 23.072 66.5176 23.632C65.9736 24.176 65.3176 24.608 64.5496 24.928C63.7976 25.232 62.9656 25.384 62.0536 25.384C61.1416 25.384 60.3016 25.232 59.5336 24.928C58.7816 24.608 58.1256 24.176 57.5656 23.632C57.0216 23.072 56.5896 22.408 56.2696 21.64C55.9656 20.872 55.8136 20.032 55.8136 19.12C55.8136 18.208 55.9656 17.368 56.2696 16.6C56.5896 15.832 57.0216 15.176 57.5656 14.632C58.1256 14.072 58.7816 13.64 59.5336 13.336C60.3016 13.016 61.1416 12.856 62.0536 12.856ZM62.0536 22.48C62.4536 22.48 62.8376 22.408 63.2056 22.264C63.5896 22.104 63.9256 21.88 64.2136 21.592C64.5016 21.304 64.7256 20.952 64.8856 20.536C65.0616 20.12 65.1496 19.648 65.1496 19.12C65.1496 18.592 65.0616 18.12 64.8856 17.704C64.7256 17.288 64.5016 16.936 64.2136 16.648C63.9256 16.36 63.5896 16.144 63.2056 16C62.8376 15.84 62.4536 15.76 62.0536 15.76C61.6376 15.76 61.2456 15.84 60.8776 16C60.5096 16.144 60.1816 16.36 59.8936 16.648C59.6056 16.936 59.3736 17.288 59.1976 17.704C59.0376 18.12 58.9576 18.592 58.9576 19.12C58.9576 19.648 59.0376 20.12 59.1976 20.536C59.3736 20.952 59.6056 21.304 59.8936 21.592C60.1816 21.88 60.5096 22.104 60.8776 22.264C61.2456 22.408 61.6376 22.48 62.0536 22.48ZM72.5513 14.872H72.7433C73.0633 14.28 73.5273 13.808 74.1353 13.456C74.7593 13.088 75.4473 12.904 76.1993 12.904C76.4713 12.904 76.6873 12.912 76.8473 12.928C77.0073 12.944 77.1593 12.976 77.3033 13.024V16.144C77.1273 16.064 76.9273 16 76.7033 15.952C76.4953 15.904 76.2393 15.88 75.9353 15.88C74.9433 15.88 74.1593 16.184 73.5833 16.792C73.0233 17.384 72.7433 18.2 72.7433 19.24V25H69.5993V13.24H72.5513V14.872ZM80.7833 15.928H78.7193V13.24H80.7833V9.64H83.9273V13.24H86.8073V15.928H83.9273V20.488C83.9273 20.76 83.9513 21.016 83.9993 21.256C84.0633 21.48 84.1753 21.672 84.3353 21.832C84.5593 22.088 84.8793 22.216 85.2953 22.216C85.5673 22.216 85.7833 22.192 85.9433 22.144C86.1033 22.08 86.2553 22 86.3993 21.904L87.2873 24.664C86.9193 24.84 86.5193 24.968 86.0873 25.048C85.6713 25.144 85.2073 25.192 84.6953 25.192C84.1033 25.192 83.5673 25.104 83.0873 24.928C82.6233 24.736 82.2313 24.48 81.9113 24.16C81.1593 23.44 80.7833 22.416 80.7833 21.088V15.928ZM93.5331 25.384C92.7651 25.384 92.0771 25.288 91.4691 25.096C90.8771 24.904 90.3571 24.656 89.9091 24.352C89.4771 24.032 89.1091 23.672 88.8051 23.272C88.5011 22.856 88.2691 22.44 88.1091 22.024L90.9171 20.824C91.1891 21.432 91.5491 21.888 91.9971 22.192C92.4611 22.48 92.9731 22.624 93.5331 22.624C94.1091 22.624 94.5651 22.52 94.9011 22.312C95.2371 22.104 95.4051 21.856 95.4051 21.568C95.4051 21.248 95.2611 20.992 94.9731 20.8C94.7011 20.592 94.2211 20.408 93.5331 20.248L91.8771 19.888C91.5091 19.808 91.1251 19.68 90.7251 19.504C90.3411 19.328 89.9891 19.104 89.6691 18.832C89.3491 18.56 89.0851 18.232 88.8771 17.848C88.6691 17.464 88.5651 17.016 88.5651 16.504C88.5651 15.928 88.6851 15.416 88.9251 14.968C89.1811 14.52 89.5251 14.144 89.9571 13.84C90.3891 13.52 90.8931 13.28 91.4691 13.12C92.0611 12.944 92.6931 12.856 93.3651 12.856C94.4851 12.856 95.4851 13.08 96.3651 13.528C97.2451 13.96 97.8931 14.656 98.3091 15.616L95.5971 16.72C95.3731 16.256 95.0451 15.92 94.6131 15.712C94.1811 15.504 93.7491 15.4 93.3171 15.4C92.8691 15.4 92.4771 15.496 92.1411 15.688C91.8051 15.864 91.6371 16.096 91.6371 16.384C91.6371 16.656 91.7731 16.872 92.0451 17.032C92.3331 17.192 92.7171 17.336 93.1971 17.464L94.9971 17.896C96.1971 18.184 97.0851 18.648 97.6611 19.288C98.2531 19.912 98.5491 20.656 98.5491 21.52C98.5491 22.032 98.4291 22.52 98.1891 22.984C97.9491 23.448 97.6051 23.864 97.1571 24.232C96.7251 24.584 96.1971 24.864 95.5731 25.072C94.9651 25.28 94.2851 25.384 93.5331 25.384Z" fill="white"/>
<defs>
<clipPath id="clip0">
<rect width="25" height="25" fill="white" transform="translate(25 25) rotate(-180)"/>
</clipPath>
</defs>
</svg>

<svg width="99" height="32" fill="none" xmlns="http://www.w3.org/2000/svg"><g clip-path="url(#clip0)"><path fill-rule="evenodd" clip-rule="evenodd" d="M.489 15.452a9.06 9.06 0 1 1 18.12 0 9.06 9.06 0 0 1-18.12 0z" fill="#fff"/><path fill-rule="evenodd" clip-rule="evenodd" d="M12.948 23.851l-3.391-2.075v-3.143l2.832-2.057 3.304.741.659 4.116-3.404 2.418z" fill="#00ADEE"/><path fill-rule="evenodd" clip-rule="evenodd" d="M18.55 14.436l-2.857 2.882-3.305-.742-1.082-3.33 2.043-3.142 4.018.771 1.183 3.56zm-12.08 9.54l3.07-2.2v-3.142l-2.833-2.058-3.305.742-.499 4.292 3.568 2.366z" fill="#00ADEE"/><path fill-rule="evenodd" clip-rule="evenodd" d="M.55 14.39l2.853 2.928 3.304-.742 1.082-3.33-2.042-3.142-4.008.753-1.188 3.532z" fill="#00ADEE"/><path fill-rule="evenodd" clip-rule="evenodd" d="M7.789 6.564l-2.042 3.54 2.042 3.143h3.518l2.043-3.143-2.043-3.54H7.79z" fill="#00ADEE"/><path d="M1.29 10.663A9.481 9.481 0 0 0 .068 14.33l-.002.013a9.511 9.511 0 0 0 2.441 7.551.49.49 0 0 0 .088.094 9.576 9.576 0 0 0 3.756 2.461c1 .357 2.077.552 3.198.552a9.498 9.498 0 0 0 3.628-.717 9.59 9.59 0 0 0 3.497-2.482.504.504 0 0 0 .082-.093 9.508 9.508 0 0 0 2.282-7.316l-.002-.013a9.47 9.47 0 0 0-.392-1.835l5.129-5.129a.488.488 0 0 0-.69-.69l-4.822 4.82a9.49 9.49 0 0 0-.446-.868.477.477 0 0 0-.056-.095 9.592 9.592 0 0 0-5.463-4.275l3.44-3.44a.489.489 0 0 0-.69-.69l-3.867 3.867a9.552 9.552 0 0 0-9.826 4.517.487.487 0 0 0-.061.102zm4.225-.019l1.738 2.674-.924 2.842-2.196.493-.57.129-2.497-2.564a8.505 8.505 0 0 1 .99-2.924l3.46-.65zm6.329 2.674l1.736-2.672 3.471.665a8.51 8.51 0 0 1 .986 2.95l-2.5 2.521-2.77-.622-.615-1.894-.308-.948zm4.812 6.92l-.44-2.752 1.902-1.92a8.521 8.521 0 0 1-1.462 4.672zm-5.703-6.503l.862 2.655-2.258 1.64L7.3 16.39l.863-2.655h2.79zM.978 15.528l1.913 1.964-.338 2.908a8.525 8.525 0 0 1-1.575-4.872zm2.437 5.906l.433-3.716 1.05-.235L6.6 17.1l2.452 1.781v2.644l-2.65 1.899a8.603 8.603 0 0 1-2.986-1.991zm4.15 2.357l2.004-1.435 2.233 1.366a8.548 8.548 0 0 1-4.236.07zm5.422-.489l-2.941-1.8v-2.62l1.73-1.256.722-.525 2.766.62.568 3.554a8.612 8.612 0 0 1-2.845 2.027zm3.309-13.13l-2.635-.506-1.341-2.325a8.606 8.606 0 0 1 3.976 2.831zm-5.298-3.168l1.78 3.085-1.736 2.67H8.055l-1.735-2.67L8.1 7.004a8.59 8.59 0 0 1 2.899 0zm-4.221.337L5.436 9.665l-2.625.494A8.605 8.605 0 0 1 6.777 7.34z" fill="#fff"/><path d="M18.275 7.416L24.857.834a.488.488 0 1 0-.69-.69l-6.582 6.58a.489.489 0 0 0 .69.692zm-1.387-5.903a.492.492 0 0 0 .488-.489.491.491 0 0 0-.488-.488.49.49 0 0 0 0 .977z" fill="#fff"/></g><path d="M34.984 25.384c-.736 0-1.44-.104-2.112-.312a6.101 6.101 0 0 1-1.848-.936 6.578 6.578 0 0 1-1.464-1.512 7.558 7.558 0 0 1-.984-2.112l3.048-1.2c.224.864.616 1.584 1.176 2.16.56.56 1.296.84 2.208.84.336 0 .656-.04.96-.12.32-.096.6-.224.84-.384a1.93 1.93 0 0 0 .6-.648 1.78 1.78 0 0 0 .216-.888c0-.32-.056-.608-.168-.864-.112-.256-.304-.496-.576-.72-.256-.224-.6-.44-1.032-.648a14.53 14.53 0 0 0-1.56-.648l-1.056-.384a8.503 8.503 0 0 1-1.416-.648 6.294 6.294 0 0 1-1.272-.984 5.125 5.125 0 0 1-.96-1.344c-.24-.528-.36-1.12-.36-1.776 0-.672.128-1.296.384-1.872a4.663 4.663 0 0 1 1.128-1.536 5.18 5.18 0 0 1 1.752-1.032c.688-.256 1.448-.384 2.28-.384.864 0 1.608.12 2.232.36.64.224 1.176.52 1.608.888.448.352.808.744 1.08 1.176.272.432.472.84.6 1.224l-2.856 1.2c-.16-.48-.456-.912-.888-1.296-.416-.384-.992-.576-1.728-.576-.704 0-1.288.168-1.752.504-.464.32-.696.744-.696 1.272 0 .512.224.952.672 1.32.448.352 1.16.696 2.136 1.032l1.08.36c.688.24 1.312.52 1.872.84a5.42 5.42 0 0 1 1.464 1.104c.416.432.728.928.936 1.488.224.544.336 1.176.336 1.896 0 .896-.184 1.672-.552 2.328a4.862 4.862 0 0 1-1.368 1.584 6.001 6.001 0 0 1-1.896.936 7.265 7.265 0 0 1-2.064.312zm7.589-12.144h2.952v1.416h.192c.288-.496.736-.92 1.344-1.272.608-.352 1.36-.528 2.256-.528.752 0 1.464.16 2.136.48a5.338 5.338 0 0 1 1.8 1.296A5.91 5.91 0 0 1 54.5 16.6c.304.768.456 1.608.456 2.52 0 .912-.152 1.752-.456 2.52a6.189 6.189 0 0 1-1.248 1.992 5.815 5.815 0 0 1-1.8 1.296 5.123 5.123 0 0 1-2.136.456c-.896 0-1.648-.176-2.256-.528-.608-.352-1.056-.776-1.344-1.272h-.192l.192 1.68v4.92h-3.144V13.24zm6.096 9.24c.416 0 .808-.08 1.176-.24.384-.16.72-.384 1.008-.672.288-.288.52-.64.696-1.056.176-.416.264-.88.264-1.392 0-.512-.088-.976-.264-1.392a3.28 3.28 0 0 0-.696-1.056A3.092 3.092 0 0 0 49.845 16c-.368-.16-.76-.24-1.176-.24-.416 0-.816.08-1.2.24-.368.144-.696.36-.984.648a3.28 3.28 0 0 0-.696 1.056 3.604 3.604 0 0 0-.264 1.416c0 .528.088 1 .264 1.416a3.166 3.166 0 0 0 1.68 1.728 3.39 3.39 0 0 0 1.2.216zm13.385-9.624c.912 0 1.744.16 2.496.48a5.554 5.554 0 0 1 1.968 1.296c.56.544.992 1.2 1.296 1.968.32.768.48 1.608.48 2.52 0 .912-.16 1.752-.48 2.52a5.8 5.8 0 0 1-1.296 1.992c-.544.544-1.2.976-1.968 1.296-.752.304-1.584.456-2.496.456-.912 0-1.752-.152-2.52-.456a6.378 6.378 0 0 1-1.968-1.296 6.305 6.305 0 0 1-1.296-1.992c-.304-.768-.456-1.608-.456-2.52 0-.912.152-1.752.456-2.52a6.021 6.021 0 0 1 1.296-1.968 5.854 5.854 0 0 1 1.968-1.296c.768-.32 1.608-.48 2.52-.48zm0 9.624c.4 0 .784-.072 1.152-.216.384-.16.72-.384 1.008-.672.288-.288.512-.64.672-1.056.176-.416.264-.888.264-1.416 0-.528-.088-1-.264-1.416a2.987 2.987 0 0 0-.672-1.056A2.799 2.799 0 0 0 63.206 16a2.86 2.86 0 0 0-1.152-.24c-.416 0-.808.08-1.176.24-.368.144-.696.36-.984.648a3.28 3.28 0 0 0-.696 1.056c-.16.416-.24.888-.24 1.416 0 .528.08 1 .24 1.416a3.166 3.166 0 0 0 1.68 1.728c.368.144.76.216 1.176.216zm10.497-7.608h.192a3.587 3.587 0 0 1 1.392-1.416 3.988 3.988 0 0 1 2.064-.552c.272 0 .488.008.648.024.16.016.312.048.456.096v3.12a2.936 2.936 0 0 0-.6-.192 3.478 3.478 0 0 0-.768-.072c-.992 0-1.776.304-2.352.912-.56.592-.84 1.408-.84 2.448V25H69.6V13.24h2.952v1.632zm8.232 1.056H78.72V13.24h2.064v-3.6h3.144v3.6h2.88v2.688h-2.88v4.56c0 .272.024.528.072.768.064.224.176.416.336.576.224.256.544.384.96.384.272 0 .488-.024.648-.072.16-.064.312-.144.456-.24l.888 2.76a4.789 4.789 0 0 1-1.2.384c-.416.096-.88.144-1.392.144a4.644 4.644 0 0 1-1.608-.264 3.57 3.57 0 0 1-1.176-.768c-.752-.72-1.128-1.744-1.128-3.072v-5.16zm12.75 9.456c-.768 0-1.456-.096-2.064-.288a6.129 6.129 0 0 1-1.56-.744c-.432-.32-.8-.68-1.104-1.08a5.428 5.428 0 0 1-.696-1.248l2.808-1.2c.272.608.632 1.064 1.08 1.368.464.288.976.432 1.536.432.576 0 1.032-.104 1.368-.312.336-.208.504-.456.504-.744 0-.32-.144-.576-.432-.768-.272-.208-.752-.392-1.44-.552l-1.656-.36a6.078 6.078 0 0 1-1.152-.384 4.549 4.549 0 0 1-1.056-.672c-.32-.272-.584-.6-.792-.984-.208-.384-.312-.832-.312-1.344 0-.576.12-1.088.36-1.536.256-.448.6-.824 1.032-1.128.432-.32.936-.56 1.512-.72a6.622 6.622 0 0 1 1.896-.264c1.12 0 2.12.224 3 .672.88.432 1.528 1.128 1.944 2.088l-2.712 1.104a2.08 2.08 0 0 0-.984-1.008 2.965 2.965 0 0 0-1.296-.312c-.448 0-.84.096-1.176.288-.336.176-.504.408-.504.696 0 .272.136.488.408.648.288.16.672.304 1.152.432l1.8.432c1.2.288 2.088.752 2.664 1.392a3.13 3.13 0 0 1 .888 2.232c0 .512-.12 1-.36 1.464-.24.464-.584.88-1.032 1.248-.432.352-.96.632-1.584.84-.608.208-1.288.312-2.04.312z" fill="#fff"/><defs><clipPath id="clip0"><path fill="#fff" transform="rotate(-180 12.5 12.5)" d="M0 0h25v25H0z"/></clipPath></defs></svg>
